img/icons/svg/icon__telegram.svg

<svg width="22" height="22" fill="none" xmlns="http://www.w3.org/2000/svg">
  <g clip-path="url(#clip0)">
    <path d="M8.76165 13.7568L8.41759 18.5963C8.90985 18.5963 9.12305 18.3848 9.37872 18.1309L11.6867 15.9252L16.4689 19.4274C17.346 19.9162 17.9639 19.6588 18.2005 18.6206L21.3396 3.9115L21.3405 3.91063C21.6187 2.6141 20.8716 2.1071 20.017 2.42516L1.56572 9.48937C0.306452 9.97817 0.325518 10.6802 1.35165 10.9982L6.06892 12.4655L17.0262 5.6093C17.5418 5.26783 18.0107 5.45677 17.625 5.79823L8.76165 13.7568Z" fill="#fff"/>
  </g>
  <defs>
    <clipPath id="clip0">
      <path fill="#fff" transform="translate(1 1)" d="M0 0H20.8V20.8H0z"/>
    </clipPath>
  </defs>
</svg>

<svg width="22" height="22" fill="none" xmlns="http://www.w3.org/2000/svg"><g clip-path="url(#clip0)"><path d="M8.762 13.757l-.344 4.84c.492 0 .705-.212.96-.466l2.309-2.206 4.782 3.502c.877.49 1.495.232 1.732-.806L21.34 3.91c.279-1.297-.468-1.804-1.323-1.486L1.566 9.49c-1.26.49-1.24 1.19-.214 1.51l4.717 1.466L17.026 5.61c.516-.341.985-.152.599.19l-8.863 7.958z" fill="#fff"/></g><defs><clipPath id="clip0"><path fill="#fff" transform="translate(1 1)" d="M0 0h20.8v20.8H0z"/></clipPath></defs></svg>
